local/share/icons/dracula-icons-main/scalable/apps/supertux.svg

<?xml version="1.0" encoding="UTF-8"?>
<svg xmlns="http://www.w3.org/2000/svg" xmlns:xlink="http://www.w3.org/1999/xlink" width="64" height="64" viewBox="0 0 64 64">
<defs>
<linearGradient id="linear-pattern-0" gradientUnits="userSpaceOnUse" x1="-20.542" y1="40.855999" x2="-23.084999" y2="43.297001" gradientTransform="matrix(0.549241, 0, 0, 0.549241, 52.124902, 17.519461)">
<stop offset="0" stop-color="rgb(66.27451%, 66.27451%, 66.27451%)" stop-opacity="1"/>
<stop offset="1" stop-color="rgb(66.27451%, 66.27451%, 66.27451%)" stop-opacity="0"/>
</linearGradient>
<linearGradient id="linear-pattern-1" gradientUnits="userSpaceOnUse" x1="-46.134998" y1="23.190001" x2="-43.234001" y2="22.645" gradientTransform="matrix(0.549241, 0, 0, 0.549241, 52.124902, 17.519461)">
<stop offset="0" stop-color="rgb(13.72549%, 13.72549%, 13.72549%)" stop-opacity="1"/>
<stop offset="1" stop-color="rgb(13.72549%, 13.72549%, 13.72549%)" stop-opacity="0"/>
</linearGradient>
</defs>
<path fill-rule="nonzero" fill="rgb(94.901961%, 94.901961%, 94.901961%)" fill-opacity="1" d="M 55.898438 19.277344 C 55.765625 19.027344 55.617188 18.761719 55.460938 18.5 C 54.300781 16.527344 52.84375 14.65625 51.09375 12.910156 C 46.941406 8.753906 42.105469 6.234375 36.585938 5.355469 C 35.65625 5.207031 34.707031 5.101562 33.722656 5.046875 C 33.167969 5.015625 32.585938 5 32 5 C 31.464844 5 30.9375 5.015625 30.402344 5.042969 C 23.632812 5.390625 17.800781 8.015625 12.90625 12.910156 C 11.734375 14.082031 10.691406 15.308594 9.777344 16.59375 C 8.902344 17.824219 8.144531 19.109375 7.515625 20.4375 L 7.511719 20.433594 C 5.835938 23.945312 5 27.796875 5 32 C 5 39.457031 7.636719 45.824219 12.910156 51.09375 C 16.152344 54.335938 19.804688 56.578125 23.839844 57.820312 C 25.941406 58.460938 28.117188 58.839844 30.402344 58.960938 L 30.425781 58.960938 C 30.914062 58.984375 31.375 59 31.828125 59 L 32 59 C 32.589844 59 33.171875 58.984375 33.722656 58.953125 C 33.863281 58.945312 33.992188 58.9375 34.117188 58.929688 C 35.273438 58.84375 36.402344 58.695312 37.476562 58.488281 C 37.929688 58.398438 38.378906 58.300781 38.816406 58.191406 C 43.4375 57.03125 47.519531 54.667969 51.09375 51.09375 C 53.875 48.3125 55.921875 45.230469 57.234375 41.839844 C 58.289062 39.113281 58.875 36.1875 58.980469 33.058594 C 58.992188 32.710938 59 32.355469 59 32 L 59 31.828125 C 58.988281 29.503906 58.714844 27.28125 58.179688 25.136719 C 58.117188 24.886719 58.046875 24.621094 57.972656 24.355469 C 57.914062 24.164062 57.859375 23.964844 57.792969 23.757812 C 57.699219 23.460938 57.597656 23.15625 57.488281 22.851562 C 57.199219 22.035156 56.867188 21.234375 56.492188 20.4375 C 56.386719 20.222656 56.277344 20 56.164062 19.78125 C 56.082031 19.617188 55.996094 19.453125 55.898438 19.277344 Z M 55.898438 19.277344 "/>
<path fill-rule="nonzero" fill="rgb(97.647059%, 97.647059%, 97.647059%)" fill-opacity="1" d="M 51.917969 21.398438 C 51.804688 21.191406 51.679688 20.96875 51.550781 20.75 C 50.585938 19.105469 49.367188 17.546875 47.914062 16.089844 C 44.453125 12.628906 40.421875 10.527344 35.820312 9.796875 C 35.046875 9.671875 34.257812 9.585938 33.433594 9.539062 C 32.972656 9.515625 32.488281 9.5 32 9.5 C 31.554688 9.5 31.113281 9.511719 30.671875 9.535156 C 25.027344 9.824219 20.167969 12.011719 16.089844 16.089844 C 15.113281 17.066406 14.242188 18.089844 13.484375 19.160156 C 12.75 20.1875 12.121094 21.257812 11.59375 22.363281 C 10.199219 25.285156 9.5 28.5 9.5 32 C 9.5 38.214844 11.695312 43.519531 16.089844 47.914062 C 18.792969 50.613281 21.835938 52.484375 25.199219 53.515625 C 26.953125 54.050781 28.765625 54.367188 30.667969 54.46875 L 30.6875 54.46875 C 31.09375 54.488281 31.480469 54.5 31.855469 54.5 L 32 54.5 C 32.492188 54.5 32.976562 54.484375 33.433594 54.460938 C 33.554688 54.453125 33.660156 54.449219 33.765625 54.441406 C 34.730469 54.371094 35.667969 54.246094 36.5625 54.074219 C 36.941406 54 37.316406 53.917969 37.679688 53.828125 C 41.53125 52.859375 44.933594 50.890625 47.910156 47.914062 C 50.226562 45.59375 51.933594 43.027344 53.027344 40.199219 C 53.910156 37.929688 54.394531 35.488281 54.484375 32.882812 C 54.496094 32.59375 54.5 32.296875 54.5 32 L 54.5 31.855469 C 54.488281 29.917969 54.261719 28.066406 53.816406 26.28125 C 53.765625 26.074219 53.707031 25.851562 53.644531 25.632812 C 53.597656 25.46875 53.546875 25.304688 53.492188 25.132812 C 53.417969 24.886719 53.332031 24.628906 53.242188 24.375 C 53 23.695312 52.722656 23.027344 52.410156 22.367188 C 52.320312 22.183594 52.230469 22 52.136719 21.816406 C 52.070312 21.683594 51.996094 21.546875 51.914062 21.398438 Z M 51.917969 21.398438 "/>
<path fill-rule="evenodd" fill="url(#linear-pattern-0)" d="M 34.054688 35.589844 L 41.835938 40.722656 L 40.699219 43.4375 C 40.699219 43.4375 34.253906 38.265625 34.054688 35.589844 Z M 34.054688 35.589844 "/>
<path fill-rule="evenodd" fill="rgb(9.411765%, 9.411765%, 9.411765%)" fill-opacity="1" d="M 34.976562 26.679688 C 37.878906 24.695312 42.164062 21.296875 42.628906 19.753906 C 43.074219 18.273438 44.917969 18.550781 44.5 20.226562 C 44.082031 21.902344 41.789062 28.523438 38.1875 32.933594 "/>
<path fill-rule="evenodd" fill="rgb(9.411765%, 9.411765%, 9.411765%)" fill-opacity="1" d="M 20.285156 41.675781 C 21.929688 41.195312 22.847656 39.296875 24.050781 38.113281 C 26.234375 40.113281 37.585938 43.960938 31.683594 44.058594 C 28.652344 43.886719 26.886719 45.53125 25.234375 46.875 Z M 20.285156 41.675781 "/>
<path fill-rule="evenodd" fill="rgb(13.72549%, 13.72549%, 13.72549%)" fill-opacity="1" d="M 32.96875 14.300781 C 28.664062 14.378906 27.242188 17.660156 27.242188 19.277344 C 27.242188 20.898438 27.773438 24.261719 26.46875 26.472656 C 25.609375 27.9375 22.878906 31.398438 22.105469 34.640625 C 21.332031 37.878906 21.9375 44.710938 30.914062 44.871094 C 40.15625 45.035156 39.519531 47.007812 39.519531 47.007812 L 42.800781 40.742188 C 41.941406 40.332031 40.628906 39.710938 40.683594 39.597656 C 42.332031 36.101562 37.921875 29.605469 37.09375 27.078125 C 36.261719 24.550781 37.238281 23.925781 37.910156 22.386719 C 38.582031 20.84375 38.851562 14.300781 32.96875 14.300781 Z M 32.96875 14.300781 "/>
<path fill-rule="evenodd" fill="rgb(96.078431%, 87.058824%, 40.784314%)" fill-opacity="1" d="M 20.84375 41.789062 C 20.03125 41.140625 19.332031 42.039062 19.816406 42.90625 C 20.304688 43.773438 24.457031 47.941406 25.648438 49.253906 C 26.84375 50.566406 28.917969 48.648438 27.042969 47.570312 C 25.171875 46.488281 21.65625 42.441406 20.84375 41.789062 Z M 20.84375 41.789062 "/>
<path fill-rule="evenodd" fill="rgb(13.72549%, 13.72549%, 13.72549%)" fill-opacity="1" d="M 21.957031 38.148438 C 22.292969 39.445312 20.703125 41 19.855469 41.800781 C 18.75 42.839844 19.882812 43.40625 20.25 43.375 C 20.617188 43.347656 23.339844 42.363281 25.449219 43.546875 "/>
<path fill-rule="evenodd" fill="rgb(99.215686%, 99.215686%, 99.215686%)" fill-opacity="1" d="M 35.609375 17.15625 C 34.375 17.140625 33.511719 18.546875 34.160156 20.199219 C 34.527344 21.144531 36.960938 21.09375 37.117188 20.105469 C 37.378906 18.421875 36.832031 17.167969 35.609375 17.15625 Z M 35.609375 17.15625 "/>
<path fill-rule="evenodd" fill="rgb(0%, 0%, 0%)" fill-opacity="1" d="M 35.503906 18.863281 C 35.84375 18.453125 36.394531 18.449219 36.734375 18.863281 C 37.078125 19.273438 37.078125 19.941406 36.742188 20.355469 C 36.402344 20.769531 35.851562 20.773438 35.507812 20.367188 C 35.167969 19.957031 35.160156 19.289062 35.496094 18.871094 "/>
<path fill-rule="evenodd" fill="rgb(96.078431%, 87.058824%, 40.784314%)" fill-opacity="1" d="M 38 23.382812 C 38.78125 23.410156 43.417969 22.496094 43.46875 21.847656 C 43.523438 21.195312 40.214844 20.882812 39.5625 20.597656 C 38.914062 20.308594 35.75 19.464844 35.789062 21.585938 C 35.828125 23.707031 37.21875 23.355469 38 23.382812 Z M 38 23.382812 "/>
<path fill="none" stroke-width="0.62713" stroke-linecap="butt" stroke-linejoin="miter" stroke="rgb(68.235294%, 57.647059%, 0%)" stroke-opacity="1" stroke-miterlimit="4" d="M 77.320397 28.802762 C 83.063681 30.054853 90.031837 30.476753 93.883376 29.823488 " transform="matrix(0.28702, 0, 0, 0.28702, 14.62, 13.901)"/>
<path fill-rule="evenodd" fill="url(#linear-pattern-1)" d="M 27.777344 25.429688 C 23.898438 28.714844 17.808594 36.5625 19.027344 37.328125 C 20.078125 37.984375 26.335938 32.554688 28.984375 32.003906 "/>
<path fill-rule="evenodd" fill="rgb(96.078431%, 87.058824%, 40.784314%)" fill-opacity="1" d="M 42.933594 37.914062 C 43.042969 36.347656 45.234375 36.089844 45.21875 38.003906 C 45.203125 40.179688 42.253906 45.449219 41.144531 46.765625 C 40.074219 48.035156 39.011719 47.042969 39.761719 45.820312 C 40.511719 44.59375 42.785156 40.023438 42.933594 37.914062 Z M 42.933594 37.914062 "/>
<path fill-rule="evenodd" fill="rgb(80%, 80%, 80%)" fill-opacity="1" d="M 37.46875 29.148438 C 36.722656 28.816406 36.460938 30.742188 35.84375 31.644531 C 35.097656 32.726562 34.378906 33.773438 34.925781 35.488281 L 40.597656 39.421875 C 41.328125 36.546875 39.367188 32.355469 37.46875 29.148438 Z M 37.46875 29.148438 "/>
<path fill-rule="evenodd" fill="rgb(100%, 100%, 100%)" fill-opacity="1" d="M 35.898438 18.773438 C 36.011719 18.699219 36.203125 18.699219 36.316406 18.769531 C 36.433594 18.84375 36.433594 18.964844 36.320312 19.039062 C 36.203125 19.113281 36.015625 19.113281 35.898438 19.039062 C 35.78125 18.96875 35.78125 18.847656 35.894531 18.773438 "/>
</svg>

<svg id="Mplayer" width="64" height="64" enable-background="new 0 0 1024 1024" image-rendering="optimizeSpeed" version="1.1" viewBox="0 0 64 64" xmlns="http://www.w3.org/2000/svg">
 <defs>
  <linearGradient id="f" x1="-20.542" x2="-23.085" y1="40.856" y2="43.297" gradientTransform="matrix(1.9136,0,0,1.9136,130.67,12.607)" gradientUnits="userSpaceOnUse">
   <stop stop-color="#a9a9a9" offset="0"/>
   <stop stop-color="#a9a9a9" stop-opacity="0" offset="1"/>
  </linearGradient>
  <linearGradient id="j" x1="-46.135" x2="-43.234" y1="23.19" y2="22.645" gradientTransform="matrix(1.9136,0,0,1.9136,130.67,12.607)" gradientUnits="userSpaceOnUse">
   <stop stop-color="#232323" offset="0"/>
   <stop stop-color="#232323" stop-opacity="0" offset="1"/>
  </linearGradient>
 </defs>
 <path d="m55.9 19.278c-0.13442-0.24883-0.28316-0.51483-0.43761-0.77797-1.1613-1.9735-2.6199-3.8441-4.3675-5.5916-4.153-4.153-8.9895-6.6728-14.51-7.5537-0.92952-0.14873-1.8762-0.2517-2.863-0.30604-0.55487-0.031462-1.1355-0.048623-1.7218-0.048623-0.53486 0-1.064 0.014301-1.596 0.042902-6.77 0.34894-12.602 2.9717-17.496 7.8655-1.1727 1.1727-2.2166 2.3997-3.129 3.6839-0.87807 1.2327-1.6331 2.517-2.2652 3.8441l-0.00143-0.0014q-2.5126 5.2626-2.5126 11.565c0 7.4564 2.6371 13.823 7.9084 19.094 3.2434 3.2406 6.8959 5.4858 10.931 6.7243 2.1022 0.64354 4.2788 1.0211 6.5641 1.1412h0.02288c0.48623 0.02574 0.94959 0.04004 1.4015 0.04004h0.17161c0.5892 0 1.1727-0.01716 1.7218-0.04576 0.14301-0.0086 0.27172-0.01716 0.39757-0.02574 1.1555-0.08294 2.2824-0.23168 3.3578-0.44047 0.45477-0.08867 0.90378-0.18878 1.3386-0.2946 4.6221-1.1613 8.7035-3.5237 12.279-7.099 2.7801-2.7801 4.828-5.8633 6.1408-9.2556 1.0554-2.7258 1.6389-5.6518 1.7475-8.7807 0.01144-0.34608 0.01716-0.70074 0.01716-1.0582v-0.17162c-0.01144-2.3253-0.28316-4.5477-0.81801-6.6928-0.06292-0.24883-0.13442-0.51483-0.20879-0.77797-0.0572-0.19449-0.11441-0.39184-0.18019-0.60064-0.09153-0.2946-0.19449-0.60064-0.30318-0.90666-0.28888-0.81515-0.62066-1.616-0.9982-2.4111-0.10582-0.21737-0.21452-0.43761-0.32606-0.65784-0.08294-0.16303-0.16875-0.32606-0.266-0.50339z" fill="#f2f2f2" stroke-width=".89712"/>
 <path d="m51.917 21.398c-0.11202-0.20736-0.23596-0.42903-0.36467-0.64831-0.96768-1.6446-2.1832-3.2034-3.6396-4.6597-3.4608-3.4608-7.4913-5.5607-12.092-6.2948-0.77463-0.12394-1.5636-0.20975-2.3859-0.25504-0.4624-0.02622-0.94626-0.04052-1.4349-0.04052-0.44571 0-0.88666 0.01192-1.33 0.03575-5.6417 0.29078-10.501 2.4765-14.58 6.5546-0.97722 0.97722-1.8472 1.9997-2.6075 3.0699-0.73173 1.0273-1.361 2.0975-1.8878 3.2034l-0.0012-0.0012q-2.0939 4.3855-2.0939 9.6381c0 6.2137 2.1975 11.519 6.5904 15.912 2.7029 2.7005 5.7466 4.5715 9.1098 5.6036 1.7519 0.53628 3.5657 0.85091 5.4701 0.95103h0.01906c0.40519 0.02145 0.79132 0.03337 1.1679 0.03337h0.14301c0.491 0 0.97722-0.0143 1.4349-0.03814 0.11918-0.0071 0.22643-0.0143 0.3313-0.02145 0.96292-0.06912 1.902-0.19306 2.7982-0.36706 0.37897-0.07389 0.75318-0.15731 1.1155-0.2455 3.8517-0.96768 7.253-2.9364 10.232-5.9158 2.3168-2.3168 4.0233-4.8861 5.1173-7.7129 0.8795-2.2714 1.3658-4.7098 1.4563-7.3173 0.0095-0.2884 0.0143-0.58395 0.0143-0.88189v-0.14298c-0.0095-1.9378-0.23596-3.7897-0.68168-5.5773-0.05243-0.20736-0.11202-0.42903-0.174-0.64831-0.04767-0.16207-0.09534-0.32654-0.15016-0.50053-0.07628-0.2455-0.16207-0.50053-0.25265-0.75556-0.24073-0.6793-0.51721-1.3467-0.83184-2.0093-0.08819-0.18114-0.17876-0.36467-0.27172-0.5482-0.06912-0.13586-0.14063-0.27172-0.22166-0.41949z" fill="#f9f9f9" stroke-width=".89712"/>
 <g transform="matrix(.28702 0 0 .28702 14.62 13.901)" stroke-width="3.1356">
  <g fill-rule="evenodd">
   <path d="m67.711 75.562 27.105 17.889-3.9472 9.4526s-22.457-18.01-23.158-27.342z" fill="url(#f)"/>
   <path d="m70.922 44.522c10.119-6.9085 25.038-18.756 26.661-24.131 1.5568-5.157 7.9788-4.184 6.5192 1.6541-1.4595 5.8381-9.4383 28.899-21.99 44.272" fill="#181818"/>
   <path d="m19.741 96.774c5.7276-1.6827 8.9312-8.287 13.123-12.422 7.5972 6.9739 47.152 20.382 26.592 20.724-10.565-0.60837-16.712 5.1289-22.468 9.8089z" fill="#181818"/>
   <path d="m63.926 1.3936c-14.999 0.27521-19.953 11.697-19.953 17.338 0 5.6418 1.8528 17.369-2.6882 25.075-3 5.0909-12.506 17.156-15.201 28.454-2.6918 11.284-0.5898 35.09 30.686 35.64 32.2 0.5667 29.987 7.4462 29.987 7.4462l11.426-21.827c-2.9874-1.4276-7.559-3.5928-7.3693-3.9949 5.7423-12.173-9.6305-34.804-12.52-43.611-2.8897-8.8068 0.50726-10.985 2.8466-16.352 2.3393-5.3666 3.2887-28.169-17.215-28.169z" fill="#232323"/>
   <path d="m21.681 97.167c-2.8338-2.2663-5.2668 0.87212-3.5708 3.8904 1.6959 3.0183 16.163 17.54 20.318 22.117 4.1554 4.577 11.389-2.1056 4.8594-5.8727-6.53-3.7672-18.773-17.869-21.607-20.135z" fill="#f5de68"/>
   <path d="m25.559 84.486c1.1778 4.5147-4.3624 9.9275-7.3208 12.713-3.848 3.623 0.09814 5.5943 1.374 5.4962 1.2759-0.098 10.762-3.5283 18.123 0.59382" fill="#232323"/>
   <path d="m73.131 11.339c-4.3047-0.04908-7.3074 4.8429-5.0583 10.6 1.2891 3.2999 9.7658 3.1187 10.304-0.31985 0.91782-5.8643-0.98737-10.232-5.2456-10.28z" fill="#fdfdfd"/>
   <path d="m72.761 17.291a3.0383 3.6858 0 0 1 4.2911-0.0079 3.0383 3.6858 0 0 1 0.0172 5.2055 3.0383 3.6858 0 0 1-4.291 0.03461 3.0383 3.6858 0 0 1-0.03996-5.2053"/>
   <path d="m81.463 33.036c2.722 0.09066 18.873-3.0849 19.054-5.3533 0.1815-2.2683-11.342-3.3571-13.61-4.3552-2.2683-0.99808-13.293-3.9419-13.156 3.4479 0.13679 7.3897 4.9903 6.1699 7.7123 6.2606z" fill="#f5de68"/>
  </g>
  <path d="m77.324 28.802c5.7413 1.2468 12.703 1.6684 16.553 1.0265" fill="none" stroke="#ae9300" stroke-width=".62713"/>
  <path d="m81.463 33.036c2.722 0.09066 18.873-3.0849 19.054-5.3533 0.1815-2.2683-11.342-3.3571-13.61-4.3552-2.2683-0.99808-13.293-3.9419-13.156 3.4479 0.13679 7.3897 4.9903 6.1699 7.7123 6.2606z" fill="none"/>
  <path d="m45.836 40.168c-13.512 11.442-34.729 38.79-30.485 41.45 3.6603 2.2934 25.475-16.621 34.7-18.55" fill="url(#j)" fill-rule="evenodd"/>
  <path d="m40.553 45.162c-8.5567 9.0667-20.773 23.461-24.625 31.264-3.8024 6.0179 0.59632 8.2634 5.7525 3.3262 7.0031-3.8669 17.5-13.044 24.381-14.483" fill="none"/>
  <g fill-rule="evenodd">
   <path d="m98.64 83.661c0.38197-5.4526 8.0186-6.3586 7.9702 0.31266-0.0551 7.5879-10.331 25.947-14.2 30.532-3.7284 4.4181-7.4315 0.96274-4.8162-3.3026 2.6141-4.2634 10.531-20.19 11.046-27.542z" fill="#f5de68"/>
   <path d="m79.603 53.117c-2.5927-1.1498-3.508 5.5639-5.6634 8.7006-2.5967 3.7789-5.0985 7.4165-3.187 13.392l19.755 13.712c2.5476-10.027-4.2838-24.627-10.905-35.805z" fill="#ccc"/>
   <path d="m74.133 16.97a1.0355 0.65911 0 0 1 1.4624-0.0012 1.0355 0.65911 0 0 1 0.0058 0.93088 1.0355 0.65911 0 0 1-1.4624 0.0062 1.0355 0.65911 0 0 1-0.0136-0.93085" fill="#fff"/>
  </g>
 </g>
</svg>
